X:1
T:Title
%%score 1 2
L:1/8
Q:1/4=108
M:4/4
K:Ab
V:1 treble nm="Grand Piano, Soprano"
V:2 bass nm="Choir Pad, Karnataka, 87.87"
V:1
 [Ec]2 [CE]2 [Fd]3 [Ec] | [Ge]2 [DG]2 [DF]2 [CE]2 | [DF]3 [FA] [EG][DF][_C=D][DF] | [CE]8 | %4
w: By~P.~W.~Bush,~1898 * * *||||
 [Ec]2 [CE]2 [Fd]3 [Ec] | [Ge]2 [DG]2 [DF]2 [CE]2 | E3 [=DF] [_DG][CA] [Ec]>[DB] | [CA]8 | %8
w: ||||
 [FA]3 [FA] [FA][FA][EG][DF] | [_C=D]4 [=CE]4 | E3 [DE] [DG][B,D][DG][DF] | [DE]8 | %12
w: ||||
 [=Ec]3 [EG] [GB][FA][_EG][DF] | [DF]4 [CE]4 | [DE]3 [Fd] [Ec][DB][DF][DG] | [CA]8 |] %16
w: ||||
V:2
 [A,,A,]2 [A,,A,]2 [A,,A,]3 [A,,A,] | [E,B,]2 [E,B,]2 [E,A,]2 [A,,A,]2 | %2
 [D,A,]3 [D,A,] [D,A,][D,A,][A,,F,][A,,F,] | [A,,E,]8 | [A,,A,]2 [A,,A,]2 [A,,A,]3 [A,,A,] | %5
 [E,B,]2 [E,B,]2 [E,A,]2 [A,,A,]2 | [E,G,]3 [E,A,] [E,B,][E,A,] [E,A,]>[E,G,] | [A,,A,]8 | %8
 [F,C]3 [F,C] [D,A,][D,A,][D,A,][D,A,] | [A,,F,]4 [A,,E,]4 | %10
 [E,G,]3 [E,G,] [E,B,][E,G,][E,B,][E,A,] | [E,G,]8 | [C,G,]3 [C,G,] [D,A,][D,A,][D,A,][D,A,] | %13
 [A,,A,]4 [A,,A,]4 | [E,G,]3 [E,G,] [E,A,][E,G,][E,B,][E,B,] | [A,,E,]8 |] %16

